docs/assets/daemonless-logo.svg

<?xml version="1.0" encoding="utf-8"?>
<svg xmlns="http://www.w3.org/2000/svg" viewBox="0 0 500 500">
  <path fill="#384658" d="M 35.621 379.47 C 35.315 377.93 34.848 133.993 35.747 127.503 C 37.372 126.408 205.98 25.761 241.589 4.497 C 245.854 1.949 396.786 99.2 463.418 133.809 C 463.671 200.929 466.609 377.983 462.962 380.136 C 399.295 417.752 329.859 457.484 265.756 494.705 C 265.234 459.592 265.467 425.008 265.029 390.433 C 264.941 383.332 267.407 379.449 273.242 376.085 C 297.129 362.309 320.841 348.228 344.591 334.21 C 353.556 328.917 362.449 323.502 370.321 318.776 C 364.531 298.721 358.609 280.161 353.896 261.298 C 349.711 244.55 347.142 227.463 350.014 210.051 C 351.1 203.472 351.804 203.031 357.465 206.132 C 360.49 207.789 363.676 209.159 367.324 210.916 L 367.324 129.601 C 364.545 131.265 362.474 132.1 360.921 133.509 C 354.304 139.506 347.249 145.159 341.428 151.87 C 321.028 175.375 312.815 202.909 314.827 233.934 C 316.201 255.134 320.75 275.576 327.181 295.679 C 328.823 300.809 327.58 303.727 322.77 306.435 C 308.711 314.352 294.967 322.829 281.069 331.039 C 276.377 333.809 271.598 336.434 265.759 339.754 L 265.759 146.88 L 292.862 153.737 L 247.845 71.379 L 204.188 151.41 L 205.744 153.009 L 229.775 147.351 L 229.775 339.369 C 225.462 337.079 222.082 335.432 218.845 333.541 C 204.909 325.394 191.101 317.024 177.079 309.03 C 166.522 303.012 167.057 302.938 169.729 291.286 C 174.271 271.482 179.584 251.553 181.065 231.419 C 183.637 196.447 170.633 166.403 145.438 141.952 C 140.647 137.302 134.832 133.713 128.295 128.723 L 128.295 211.117 C 132.288 209.11 135.596 207.818 138.495 205.905 C 142.934 202.98 145.42 203.968 145.417 209.182 C 145.408 220.992 145.808 232.875 144.647 244.589 C 142.358 267.721 135.21 289.71 126.583 311.182 C 124.336 316.776 125.949 319.716 130.865 322.56 C 162.488 340.856 193.971 359.394 225.556 377.754 C 229.33 379.95 230.518 382.811 230.5 387.1 C 230.34 423.248 230.391 459.4 230.377 495.552 L 35.621 379.47" style="stroke-width: 1;"/>
  <path fill="#e24543" d="M 230.674 495.929 C 230.435 459.66 230.391 423.391 230.546 387.121 C 230.565 382.832 229.378 379.971 225.603 377.775 C 194.018 359.415 162.535 340.877 130.911 322.582 C 125.995 319.737 124.383 316.796 126.629 311.204 C 135.258 289.732 142.403 267.742 144.695 244.61 C 145.856 232.895 145.454 221.011 145.463 209.203 C 145.467 203.99 142.98 203.001 138.543 205.927 C 135.641 207.838 132.334 209.132 128.343 211.138 L 128.343 128.744 C 134.877 133.734 140.693 137.323 145.484 141.973 C 170.681 166.423 183.682 196.468 181.111 231.44 C 179.632 251.576 174.319 271.504 169.775 291.307 C 167.103 302.957 166.567 303.033 177.125 309.052 C 191.149 317.045 204.956 325.414 218.892 333.562 C 222.13 335.455 225.509 337.1 229.822 339.39 L 229.822 147.371 L 205.79 153.027 L 204.235 151.43 L 247.892 71.399 L 292.907 153.757 L 265.806 146.9 L 265.806 339.77 C 271.646 336.453 276.422 333.827 281.115 331.055 C 295.013 322.846 308.758 314.37 322.817 306.452 C 327.627 303.743 328.868 300.826 327.228 295.697 C 320.796 275.592 316.248 255.152 314.873 233.951 C 312.862 202.927 321.073 175.392 341.474 151.887 C 347.296 145.176 354.352 139.524 360.969 133.525 C 362.52 132.116 364.593 131.284 367.371 129.618 L 367.371 210.935 C 363.722 209.176 360.539 207.807 357.511 206.151 C 351.849 203.048 351.146 203.489 350.062 210.067 C 347.187 227.481 349.757 244.567 353.942 261.315 C 358.654 280.177 364.579 298.74 370.368 318.793 C 362.496 323.52 353.603 328.935 344.636 334.227 C 320.887 348.243 297.175 362.325 273.287 376.102 C 267.454 379.467 264.987 383.348 265.077 390.451 C 265.514 425.025 265.279 459.608 265.333 494.836 C 265.259 495.67 265.165 495.887 265.007 496.036 C 253.724 506.4 242.365 507.028 230.675 495.926" style="stroke-width: 1;"/>
</svg>

<?xml version="1.0" encoding="UTF-8"?>
<svg width="500" height="500" aria-labelledby="title desc" version="1.1" viewBox="0 0 500 500" xmlns="http://www.w3.org/2000/svg" xmlns:cc="http://creativecommons.org/ns#" xmlns:dc="http://purl.org/dc/elements/1.1/" xmlns:rdf="http://www.w3.org/1999/02/22-rdf-syntax-ns#">
 <title>Daemonless</title>
 <desc>The official logo of the Daemonless project — FreeBSD-native containers.</desc>
 <path d="m35.62 379.47c-0.3-1.54-0.77-245.48 0.13-251.97 1.62-1.09 170.23-101.74 205.84-123 4.26-2.55 155.2 94.7 221.83 129.31 0.25 67.12 3.19 244.17-0.46 246.33-63.66 37.61-133.1 77.34-197.2 114.57-0.53-35.12-0.29-69.7-0.73-104.28-0.09-7.1 2.38-10.98 8.21-14.34 23.89-13.78 47.6-27.86 71.35-41.88 8.97-5.29 17.86-10.71 25.73-15.43-5.79-20.06-11.71-38.62-16.42-57.48-4.19-16.75-6.76-33.84-3.89-51.25 1.09-6.58 1.79-7.02 7.46-3.92 3.02 1.66 6.21 3.03 9.85 4.79v-81.32c-2.77 1.67-4.85 2.5-6.4 3.91-6.62 6-13.67 11.65-19.49 18.36-20.4 23.51-28.61 51.04-26.6 82.06 1.37 21.2 5.92 41.65 12.35 61.75 1.64 5.13 0.4 8.05-4.41 10.76-14.06 7.91-27.8 16.39-41.7 24.6-4.69 2.77-9.47 5.39-15.31 8.71v-192.87l27.1 6.86-45.01-82.36-43.66 80.03 1.55 1.6 24.04-5.66v192.02c-4.32-2.29-7.7-3.94-10.93-5.83-13.94-8.15-27.75-16.52-41.77-24.51-10.56-6.02-10.02-6.09-7.35-17.74 4.54-19.81 9.85-39.74 11.34-59.87 2.57-34.97-10.44-65.02-35.63-89.47-4.79-4.65-10.61-8.24-17.14-13.23v82.4c3.99-2.01 7.3-3.3 10.2-5.21 4.43-2.93 6.92-1.94 6.92 3.27-0.01 11.81 0.39 23.7-0.77 35.41-2.29 23.13-9.44 45.12-18.07 66.59-2.24 5.6-0.63 8.54 4.29 11.38 31.62 18.3 63.1 36.83 94.69 55.19 3.77 2.2 4.96 5.06 4.94 9.35-0.16 36.15-0.11 72.3-0.12 108.45z" fill="#384658" stroke="#26334a" stroke-linecap="round" stroke-linejoin="round" stroke-width="8"/>
 <path d="m230.67 495.93c-0.23-36.27-0.28-72.54-0.12-108.81 0.02-4.29-1.17-7.15-4.95-9.34-31.58-18.36-63.06-36.9-94.69-55.2-4.91-2.84-6.53-5.78-4.28-11.38 8.63-21.47 15.77-43.46 18.07-66.59 1.16-11.71 0.75-23.6 0.76-35.41 0.01-5.21-2.48-6.2-6.92-3.27-2.9 1.91-6.21 3.2-10.2 5.21v-82.4c6.54 4.99 12.35 8.58 17.14 13.23 25.2 24.45 38.2 54.5 35.63 89.47-1.48 20.14-6.79 40.06-11.33 59.87-2.68 11.65-3.21 11.72 7.35 17.74 14.02 8 27.83 16.36 41.76 24.51 3.24 1.9 6.62 3.54 10.93 5.83v-192.02l-24.03 5.66-1.55-1.6 43.65-80.03 45.02 82.36-27.1-6.86v192.87c5.84-3.32 10.61-5.94 15.31-8.71 13.89-8.21 27.64-16.69 41.7-24.61 4.81-2.71 6.05-5.62 4.41-10.75-6.43-20.11-10.98-40.55-12.36-61.75-2.01-31.02 6.2-58.56 26.6-82.06 5.83-6.71 12.88-12.37 19.5-18.36 1.55-1.41 3.62-2.25 6.4-3.91v81.32c-3.65-1.76-6.83-3.13-9.86-4.79-5.66-3.1-6.36-2.66-7.45 3.92-2.87 17.41-0.3 34.5 3.88 51.25 4.71 18.86 10.64 37.42 16.43 57.47-7.87 4.73-16.77 10.15-25.73 15.44-23.75 14.01-47.46 28.1-71.35 41.87-5.84 3.37-8.3 7.25-8.21 14.35 0.43 34.58 0.2 69.16 0.25 104.39-0.07 0.83-0.16 1.05-0.32 1.2-11.29 10.36-22.64 10.99-34.33-0.11z" fill="#e24543" stroke="#e24543" stroke-linecap="round" stroke-linejoin="round" stroke-width="6"/>
 <metadata>
  <rdf:RDF>
   <cc:Work rdf:about="">
    <dc:title>Daemonless Logo</dc:title>
   </cc:Work>
  </rdf:RDF>
 </metadata>
</svg>
